flaticon/hand-gestures/pointing-2.svg

<svg xmlns="http://www.w3.org/2000/svg" width="32" height="32" viewBox="0 0 24 24">
    <path d="M12.640625 11.683594C12.679688 11.683594 12.800781 11.566406 13.199219 11.484375 14.398438 11.203125 15.199219 10.285156 15.199219 9.207031L15.199219 6.726562C15.199219 5.246094 14.160156 3.609375 12.800781 3.609375L12.121094 3.609375C11.199219 2.886719 10.082031 2.328125 10.039062 2.328125 9.042969 1.769531 8 .847656 7.480469.410156 7.121094.0507812 7.042969-.03125 6.84375.0078125 6.722656.0078125 6.363281.0078125 6.082031.449219 6.003906.570312 5.921875.6875 5.882812.808594 5.523438 1.769531 5.921875 2.96875 6.761719 3.609375L1.605469 3.609375C.84375 3.609375.00390625 4.207031.00390625 5.007812.00390625 5.808594.882812 6.40625 1.605469 6.40625L2.964844 6.40625C2.84375 6.566406 2.804688 6.765625 2.804688 6.964844 2.804688 7.726562 3.523438 8.285156 4.203125 8.40625 4.082031 8.566406 4.003906 8.765625 4.003906 9.003906 4.003906 9.6875 4.601562 10.207031 5.203125 10.367188 5.164062 10.523438 5.121094 10.644531 5.121094 10.804688 5.121094 12.324219 6.921875 12.40625 10.679688 12.40625 11.679688 12.40625 12.320312 11.964844 12.640625 11.683594zM5.960938 10.804688C5.960938 10.644531 6.082031 10.40625 6.402344 10.40625L8.402344 10.40625C8.640625 10.40625 8.800781 10.246094 8.800781 10.003906 8.800781 9.765625 8.640625 9.605469 8.402344 9.605469L5.601562 9.605469C5.28125 9.605469 4.804688 9.367188 4.804688 9.007812 4.804688 8.6875 5.363281 8.40625 5.601562 8.40625L8 8.40625C8.242188 8.40625 8.402344 8.246094 8.402344 8.007812 8.402344 7.765625 8.242188 7.605469 8 7.605469L4.402344 7.605469C4.042969 7.605469 3.601562 7.246094 3.601562 6.964844 3.601562 6.6875 4.003906 6.40625 4.363281 6.40625L8.363281 6.40625C8.5625 6.40625 8.761719 6.246094 8.761719 6.007812 8.761719 5.765625 8.601562 5.605469 8.363281 5.605469L1.605469 5.605469C1.242188 5.605469.804688 5.289062.804688 5.007812.804688 4.6875 1.242188 4.40625 1.605469 4.40625L7.882812 4.40625 8.121094 4.648438C8.203125 4.726562 8.28125 4.769531 8.402344 4.769531 8.519531 4.769531 8.601562 4.726562 8.679688 4.648438 8.839844 4.488281 8.839844 4.246094 8.679688 4.085938L8.421875 3.828125C8.394531 3.792969 8.363281 3.757812 8.320312 3.726562L8.28125 3.6875C8.234375 3.644531 8.183594 3.609375 8.128906 3.589844L7.480469 3.128906C6.761719 2.6875 6.441406 1.730469 6.683594 1.128906 6.722656 1.089844 6.761719 1.007812 6.800781.929688 6.800781.890625 6.84375.847656 6.84375.847656 6.882812.929688 6.960938.96875 7.042969 1.050781 7.5625 1.488281 8.640625 2.449219 9.761719 3.046875 9.761719 3.046875 10.765625 3.53125 11.613281 4.179688 11.628906 4.246094 11.664062 4.3125 11.71875 4.367188 12.039062 4.6875 12.121094 4.847656 12.441406 5.40625 12.519531 5.527344 12.640625 5.605469 12.800781 5.605469 13 5.605469 13.28125 5.246094 13.160156 5.046875 12.996094 4.777344 12.882812 4.578125 12.769531 4.40625L12.839844 4.40625C13.71875 4.449219 14.4375 5.6875 14.4375 6.726562L14.4375 9.207031C14.4375 10.058594 13.726562 10.496094 13.101562 10.667969 13.125 10.609375 13.144531 10.546875 13.160156 10.484375 13.238281 10.285156 13.078125 10.046875 12.878906 10.003906 12.679688 9.925781 12.441406 10.085938 12.398438 10.285156 12.28125 10.765625 11.921875 11.164062 11.640625 11.324219 11.574219 11.363281 11.523438 11.414062 11.488281 11.472656 11.269531 11.550781 11.015625 11.605469 10.71875 11.605469 7.363281 11.605469 5.960938 11.484375 5.960938 10.804688zM22.394531 15.203125L17.238281 15.203125C18.078125 14.5625 18.476562 13.324219 18.117188 12.40625 18.078125 12.285156 17.996094 12.164062 17.917969 12.042969 17.636719 11.605469 17.277344 11.605469 17.117188 11.605469 16.957031 11.605469 16.878906 11.683594 16.476562 12.003906 15.957031 12.40625 14.917969 13.324219 13.917969 13.882812 13.878906 13.925781 12.757812 14.484375 11.839844 15.203125L11.199219 15.203125C9.839844 15.242188 8.800781 16.882812 8.800781 18.320312L8.800781 20.800781C8.800781 21.878906 9.601562 22.800781 10.800781 23.082031 11.199219 23.160156 11.320312 23.242188 11.359375 23.28125 11.679688 23.558594 12.359375 24 13.320312 24 17.039062 24 18.835938 23.921875 18.835938 22.359375 18.835938 22.199219 18.796875 22.039062 18.757812 21.921875 19.398438 21.800781 19.996094 21.242188 19.996094 20.5625 19.996094 20.320312 19.917969 20.121094 19.796875 19.960938 20.476562 19.882812 21.195312 19.28125 21.195312 18.5625 21.195312 18.363281 21.117188 18.164062 21.035156 18.003906L22.394531 18.003906C23.117188 18.003906 23.996094 17.402344 23.996094 16.601562 23.996094 15.804688 23.15625 15.203125 22.394531 15.203125zM22.394531 17.203125L15.636719 17.203125C15.398438 17.203125 15.238281 17.363281 15.238281 17.601562 15.238281 17.84375 15.398438 18.003906 15.636719 18.003906L19.675781 18.003906C20.035156 18.003906 20.4375 18.242188 20.4375 18.5625 20.4375 18.882812 19.996094 19.203125 19.636719 19.203125L18.4375 19.203125C18.429688 19.203125 18.425781 19.203125 18.417969 19.203125 18.410156 19.203125 18.402344 19.203125 18.398438 19.203125L16 19.203125C15.757812 19.203125 15.597656 19.363281 15.597656 19.601562 15.597656 19.839844 15.757812 20 16 20L18.398438 20C18.402344 20 18.410156 20 18.417969 20 18.425781 20 18.429688 20 18.4375 20 18.675781 20 19.238281 20.28125 19.238281 20.601562 19.238281 20.960938 18.757812 21.199219 18.4375 21.199219L17.636719 21.199219C17.632812 21.199219 17.625 21.203125 17.617188 21.203125 17.609375 21.203125 17.605469 21.199219 17.597656 21.199219L15.597656 21.199219C15.359375 21.199219 15.199219 21.359375 15.199219 21.601562 15.199219 21.839844 15.359375 22 15.597656 22L17.597656 22C17.605469 22 17.609375 22 17.617188 22 17.625 22 17.632812 22 17.636719 22 17.957031 22 18.078125 22.242188 18.078125 22.402344 18.078125 23.082031 16.679688 23.199219 13.320312 23.199219 12.992188 23.199219 12.71875 23.132812 12.492188 23.039062 12.457031 22.992188 12.414062 22.953125 12.359375 22.921875 12.078125 22.761719 11.71875 22.359375 11.601562 21.878906 11.558594 21.679688 11.320312 21.5625 11.121094 21.601562 10.921875 21.640625 10.800781 21.878906 10.839844 22.082031 10.851562 22.136719 10.867188 22.195312 10.882812 22.25 10.273438 22.066406 9.601562 21.628906 9.601562 20.800781L9.601562 18.320312C9.601562 17.289062 10.3125 16.019531 11.1875 16.003906 11.078125 16.167969 10.972656 16.351562 10.839844 16.601562 10.71875 16.804688 10.800781 17.042969 11 17.164062 11.082031 17.203125 11.121094 17.203125 11.199219 17.203125 11.359375 17.203125 11.480469 17.121094 11.558594 16.960938 11.878906 16.402344 11.960938 16.242188 12.28125 15.921875 12.304688 15.898438 12.328125 15.867188 12.34375 15.839844 13.210938 15.15625 14.28125 14.605469 14.320312 14.605469 15.4375 14.003906 16.519531 13.042969 17.039062 12.605469 17.117188 12.523438 17.199219 12.445312 17.238281 12.40625 17.238281 12.40625 17.277344 12.445312 17.277344 12.484375 17.359375 12.5625 17.359375 12.644531 17.398438 12.683594 17.636719 13.285156 17.316406 14.285156 16.558594 14.722656L15.757812 15.285156C15.699219 15.3125 15.65625 15.359375 15.628906 15.414062L15.320312 15.722656C15.160156 15.882812 15.160156 16.121094 15.320312 16.28125 15.398438 16.363281 15.480469 16.402344 15.597656 16.402344 15.71875 16.402344 15.796875 16.363281 15.878906 16.28125L16.160156 16.003906 22.394531 16.003906C22.753906 16.003906 23.195312 16.28125 23.195312 16.601562 23.195312 16.882812 22.753906 17.203125 22.394531 17.203125zM22.394531 17.203125"/>
</svg>

<svg xmlns="http://www.w3.org/2000/svg" width="32" height="32" viewBox="0 0 24 24">
    <path d="M12.64 11.684c.04 0 .16-.118.56-.2 1.198-.28 2-1.199 2-2.277v-2.48c0-1.48-1.04-3.118-2.4-3.118h-.679c-.922-.722-2.039-1.28-2.082-1.28C9.043 1.768 8 .847 7.48.41 7.121.05 7.043-.03 6.844.008c-.121 0-.48 0-.762.441-.078.121-.16.238-.2.36-.359.96.04 2.16.88 2.8H1.605c-.761 0-1.601.598-1.601 1.399 0 .8.879 1.398 1.601 1.398h1.36c-.121.16-.16.36-.16.559 0 .762.718 1.32 1.398 1.441-.121.16-.2.36-.2.598 0 .684.599 1.203 1.2 1.363-.039.156-.082.278-.082.438 0 1.52 1.8 1.601 5.559 1.601 1 0 1.64-.441 1.96-.722zm-6.68-.88c0-.16.122-.398.442-.398h2c.239 0 .399-.16.399-.402 0-.238-.16-.399-.399-.399h-2.8c-.32 0-.797-.238-.797-.597 0-.32.558-.602.797-.602H8c.242 0 .402-.16.402-.398 0-.242-.16-.403-.402-.403H4.402c-.359 0-.8-.359-.8-.64 0-.277.402-.559.761-.559h4a.4.4 0 0 0 .399-.398c0-.242-.16-.403-.399-.403H1.605c-.363 0-.8-.316-.8-.597 0-.32.437-.602.8-.602h6.278l.238.242c.082.079.16.122.281.122.118 0 .2-.043.278-.122a.39.39 0 0 0 0-.562l-.258-.258a.5.5 0 0 0-.102-.101l-.039-.04a.46.46 0 0 0-.152-.097l-.649-.461c-.718-.442-1.039-1.399-.796-2 .039-.04.078-.121.117-.2 0-.038.043-.081.043-.081.039.082.117.12.199.203.52.437 1.598 1.398 2.719 1.996 0 0 1.004.484 1.851 1.133.016.066.051.133.106.187.32.32.402.48.722 1.04.079.12.2.198.36.198.199 0 .48-.359.36-.558-.165-.27-.278-.469-.391-.64h.07c.879.042 1.598 1.28 1.598 2.32v2.48c0 .852-.711 1.29-1.336 1.461.023-.059.043-.121.058-.184.078-.199-.082-.437-.281-.48-.2-.078-.438.082-.48.281-.118.48-.477.88-.758 1.04a.428.428 0 0 0-.153.148 2.26 2.26 0 0 1-.77.132c-3.355 0-4.757-.12-4.757-.8zm0 0M22.395 15.203h-5.157c.84-.64 1.239-1.879.88-2.797-.04-.12-.122-.242-.2-.363-.281-.438-.64-.438-.8-.438-.161 0-.24.079-.641.399-.52.402-1.559 1.32-2.559 1.879-.04.043-1.16.601-2.078 1.32h-.64c-1.36.04-2.4 1.68-2.4 3.117v2.48c0 1.079.802 2 2 2.282.4.078.52.16.56.2.32.277 1 .718 1.96.718 3.72 0 5.516-.078 5.516-1.64 0-.16-.04-.32-.078-.438.64-.121 1.238-.68 1.238-1.36a.975.975 0 0 0-.2-.601c.68-.078 1.4-.68 1.4-1.398 0-.2-.079-.399-.16-.56h1.359c.722 0 1.601-.6 1.601-1.401 0-.797-.84-1.399-1.601-1.399zm0 2h-6.758c-.239 0-.399.16-.399.399 0 .242.16.402.399.402h4.039c.36 0 .762.238.762.558 0 .32-.442.641-.801.641H16c-.242 0-.402.16-.402.399 0 .238.16.398.402.398h2.438c.238 0 .8.281.8.602 0 .359-.48.597-.8.597h-.801c-.004 0-.012.004-.02.004s-.012-.004-.02-.004h-2c-.238 0-.398.16-.398.403 0 .238.16.398.399.398h2.039c.32 0 .441.242.441.402 0 .68-1.398.797-4.758.797a2.14 2.14 0 0 1-.828-.16.429.429 0 0 0-.133-.117c-.28-.16-.64-.563-.757-1.043-.043-.2-.282-.317-.48-.277-.2.039-.321.277-.282.48.012.055.027.113.043.168-.61-.184-1.281-.621-1.281-1.45v-2.48c0-1.03.71-2.3 1.585-2.316-.109.164-.214.348-.347.598-.121.203-.04.441.16.562.082.04.121.04.2.04.16 0 .28-.083.359-.243.32-.559.402-.719.722-1.04a.415.415 0 0 0 .063-.081c.867-.684 1.937-1.235 1.976-1.235 1.117-.601 2.2-1.562 2.72-2 .077-.082.16-.16.198-.199 0 0 .04.04.04.078.081.079.081.16.12.2.239.601-.082 1.601-.84 2.039l-.8.562a.275.275 0 0 0-.13.13l-.308.308a.385.385 0 0 0 0 .558c.078.082.16.121.278.121.12 0 .199-.039.28-.12l.282-.278h6.235c.359 0 .8.277.8.598 0 .28-.441.601-.8.601zm0 0"/>
</svg>
